X: 4
T: The Limerick Lasses
R: reel
M: 4/4
L: 1/8
K: Dmaj
dBAF DFAG|GFGA BE E2|dBAF DFAF|GBAG FD [A,D]2:|
dcde f2 fe|dfed cAAB|cdef g2 ag|faeg fd d2:|
BdAd BdAd|Bdef gfed|BdAd BdA2|1faeg fd dd:|2faef d2 z2||


Tune 516	Setting 25441

